X:1
C:Trad
S:Pipers Pocket Green Book
M:3/4
L:1/8
K:G
G2 G>B A>F | G2 B>d g2 | a2 a>g fe/2f/2 | g2 b>g d>B | \
G2 G>B A>F | G2 B>d g2 | a2 a>g fe/2f/2 | g2 g2 z2 :|
b2 b>a g>f | e2 e>d B2 | a2 a>g f>e | d>e d>c B>A | \
G2 G>B A>F | G2 B>d g2 | a2 a>g fe/2f/2 | g2 g2 :|
d B>d g>f  | e2 e>d c2 | a2 a>g fe/2f/2 | g2 b>g d2 | \
d2 B>d g>f | e2 e>d c2 | a>b a>g fe/2f/2 | g2 g2 :|